X:1
T:Embry, 11.10.11.10
T:Embry, 11.10.11.10
T:James Crawford Embry, 1897
T:Public Domain Courtesy of the Cyber Hymnal™
C:James Crawford Embry, 1897
Z:Public Domain
Z:Courtesy of the Cyber Hymnal™
%%score ( 1 2 ) ( 3 4 )
L:1/8
M:4/2
K:Eb
V:1 treble 
V:2 treble 
V:3 bass 
V:4 bass 
V:1
 [EG]4 [FA]2 [GB]2 [Ec]6 [EB]2 | [FB]3 [FA] [EA]3 [EG] [EG]4 [DF]4 | %2
 [GB]4 [Ge]2 [Ad]2 [Ee]6 [Ee]2 | [Ef]3 [Ee] [Ed]2 [Ec]2 [Ec]4 z4 | [EG]4 [FA]2 [GB]2 [Ec]6 [EB]2 | %5
 [FA]3 [FA] [EA]3 [EG] [EG]4 [DF]2 [GB]2 | [Ge]3 [Ge] [Ad]2 [Ge]2 [GB]2 [FA]2 [EG]2 [DF]2 | %7
 E4 z4 |] %8
V:2
 x16 | x16 | x16 | x16 | x16 | x16 | x16 | E4 x4 |] %8
V:3
 [E,B,]4 [E,B,]2 [E,B,]2 [E,A,]6 [E,G,]2 | [D,A,]3 [D,B,] [E,C]3 [E,B,] [B,,B,]4 [B,,B,]4 | %2
 [E,B,]4 [E,B,]2 [F,B,]2 [G,B,]6 [G,B,]2 | [A,C]3 [A,C] [A,C]2 [A,E]2 [G,E]4 z4 | %4
 [E,B,]4 [E,B,]2 [E,B,]2 [E,A,]6 [E,G,]2 | [D,A,]3 [D,B,] [E,C]3 [E,B,] [B,,B,]4 [B,,B,]2 [E,B,]2 | %6
 [E,B,]3 [E,B,] [F,B,]2 [E,B,]2 [G,B,]2 [A,C]2 B,2 [B,,A,]2 | [E,G,]4 z4 |] %8
V:4
 x16 | x16 | x16 | x16 | x16 | x16 | x12 B,2 x2 | x8 |] %8

